Newaita/actions/22/object-flip-vertical.svg

<svg height="22" viewBox="0 0 22 22" width="22" xmlns="http://www.w3.org/2000/svg"><g fill="#424242"><path d="m15.917969 18.363281c0 1.007813-.8125 1.820313-1.820313 1.820313h-6.367187c-1.007813 0-1.816407-.8125-1.816407-1.820313v-3.636719c0-1.007812.808594-1.820312 1.816407-1.820312h6.367187c1.007813 0 1.820313.8125 1.820313 1.820312zm0 0"/><path d="m15.917969 7.449219c0 1.007812-.8125 1.820312-1.820313 1.820312h-6.367187c-1.007813 0-1.816407-.8125-1.816407-1.820312v-3.640625c0-1.007813.808594-1.816406 1.816407-1.816406h6.367187c1.007813 0 1.820313.808593 1.820313 1.816406zm-1.820313-.910157v-1.820312c0-.503906-.40625-.910156-.910156-.910156h-4.546875c-.503906 0-.910156.40625-.910156.910156v1.820312c0 .503907.40625.910157.910156.910157h4.546875c.503906 0 .910156-.40625.910156-.910157zm0 0"/><path d="m20.011719 5.628906c0 .503906-.40625.910156-.910157.910156-.503906 0-.910156-.40625-.910156-.910156 0-.5.40625-.910156.910156-.910156.503907 0 .910157.410156.910157.910156zm0 0"/><path d="m3.636719 5.628906c0 .503906-.40625.910156-.90625.910156-.503907 0-.910157-.40625-.910157-.910156 0-.5.40625-.910156.910157-.910156.5 0 .90625.410156.90625.910156zm0 0"/><path d="m20.011719 16.542969c0 .503906-.40625.910156-.910157.910156-.503906 0-.910156-.40625-.910156-.910156 0-.5.40625-.90625.910156-.90625.503907 0 .910157.40625.910157.90625zm0 0"/><path d="m3.636719 16.542969c0 .503906-.40625.910156-.90625.910156-.503907 0-.910157-.40625-.910157-.910156 0-.5.40625-.90625.910157-.90625.5 0 .90625.40625.90625.90625zm0 0"/><path d="m13.644531 11.085938c0 .503906-.40625.910156-.910156.910156s-.910156-.40625-.910156-.910156c0-.5.40625-.910157.910156-.910157s.910156.410157.910156.910157zm0 0"/><path d="m10.003906 11.085938c0 .503906-.40625.910156-.90625.910156-.503906 0-.910156-.40625-.910156-.910156 0-.5.40625-.910157.910156-.910157.5 0 .90625.410157.90625.910157zm0 0"/></g></svg>

<svg xmlns="http://www.w3.org/2000/svg" xmlns:xlink="http://www.w3.org/1999/xlink" width="22px" height="22px" viewBox="0 0 22 22" version="1.1">
<g id="surface1">
     <defs>
  <style id="current-color-scheme" type="text/css">
   .ColorScheme-Text { color:#424242; } .ColorScheme-Highlight { color:#eeeeee; }
  </style>
 </defs>
<path style="fill:currentColor" class="ColorScheme-Text" d="M 15.917969 18.363281 C 15.917969 19.371094 15.105469 20.183594 14.097656 20.183594 L 7.730469 20.183594 C 6.722656 20.183594 5.914062 19.371094 5.914062 18.363281 L 5.914062 14.726562 C 5.914062 13.71875 6.722656 12.90625 7.730469 12.90625 L 14.097656 12.90625 C 15.105469 12.90625 15.917969 13.71875 15.917969 14.726562 Z M 15.917969 18.363281 "/>
     <defs>
  <style id="current-color-scheme" type="text/css">
   .ColorScheme-Text { color:#424242; } .ColorScheme-Highlight { color:#eeeeee; }
  </style>
 </defs>
<path style="fill:currentColor" class="ColorScheme-Text" d="M 15.917969 7.449219 C 15.917969 8.457031 15.105469 9.269531 14.097656 9.269531 L 7.730469 9.269531 C 6.722656 9.269531 5.914062 8.457031 5.914062 7.449219 L 5.914062 3.808594 C 5.914062 2.800781 6.722656 1.992188 7.730469 1.992188 L 14.097656 1.992188 C 15.105469 1.992188 15.917969 2.800781 15.917969 3.808594 Z M 14.097656 6.539062 L 14.097656 4.71875 C 14.097656 4.214844 13.691406 3.808594 13.1875 3.808594 L 8.640625 3.808594 C 8.136719 3.808594 7.730469 4.214844 7.730469 4.71875 L 7.730469 6.539062 C 7.730469 7.042969 8.136719 7.449219 8.640625 7.449219 L 13.1875 7.449219 C 13.691406 7.449219 14.097656 7.042969 14.097656 6.539062 Z M 14.097656 6.539062 "/>
     <defs>
  <style id="current-color-scheme" type="text/css">
   .ColorScheme-Text { color:#424242; } .ColorScheme-Highlight { color:#eeeeee; }
  </style>
 </defs>
<path style="fill:currentColor" class="ColorScheme-Text" d="M 20.011719 5.628906 C 20.011719 6.132812 19.605469 6.539062 19.101562 6.539062 C 18.597656 6.539062 18.191406 6.132812 18.191406 5.628906 C 18.191406 5.128906 18.597656 4.71875 19.101562 4.71875 C 19.605469 4.71875 20.011719 5.128906 20.011719 5.628906 Z M 20.011719 5.628906 "/>
     <defs>
  <style id="current-color-scheme" type="text/css">
   .ColorScheme-Text { color:#424242; } .ColorScheme-Highlight { color:#eeeeee; }
  </style>
 </defs>
<path style="fill:currentColor" class="ColorScheme-Text" d="M 3.636719 5.628906 C 3.636719 6.132812 3.230469 6.539062 2.730469 6.539062 C 2.226562 6.539062 1.820312 6.132812 1.820312 5.628906 C 1.820312 5.128906 2.226562 4.71875 2.730469 4.71875 C 3.230469 4.71875 3.636719 5.128906 3.636719 5.628906 Z M 3.636719 5.628906 "/>
     <defs>
  <style id="current-color-scheme" type="text/css">
   .ColorScheme-Text { color:#424242; } .ColorScheme-Highlight { color:#eeeeee; }
  </style>
 </defs>
<path style="fill:currentColor" class="ColorScheme-Text" d="M 20.011719 16.542969 C 20.011719 17.046875 19.605469 17.453125 19.101562 17.453125 C 18.597656 17.453125 18.191406 17.046875 18.191406 16.542969 C 18.191406 16.042969 18.597656 15.636719 19.101562 15.636719 C 19.605469 15.636719 20.011719 16.042969 20.011719 16.542969 Z M 20.011719 16.542969 "/>
     <defs>
  <style id="current-color-scheme" type="text/css">
   .ColorScheme-Text { color:#424242; } .ColorScheme-Highlight { color:#eeeeee; }
  </style>
 </defs>
<path style="fill:currentColor" class="ColorScheme-Text" d="M 3.636719 16.542969 C 3.636719 17.046875 3.230469 17.453125 2.730469 17.453125 C 2.226562 17.453125 1.820312 17.046875 1.820312 16.542969 C 1.820312 16.042969 2.226562 15.636719 2.730469 15.636719 C 3.230469 15.636719 3.636719 16.042969 3.636719 16.542969 Z M 3.636719 16.542969 "/>
     <defs>
  <style id="current-color-scheme" type="text/css">
   .ColorScheme-Text { color:#424242; } .ColorScheme-Highlight { color:#eeeeee; }
  </style>
 </defs>
<path style="fill:currentColor" class="ColorScheme-Text" d="M 13.644531 11.085938 C 13.644531 11.589844 13.238281 11.996094 12.734375 11.996094 C 12.230469 11.996094 11.824219 11.589844 11.824219 11.085938 C 11.824219 10.585938 12.230469 10.175781 12.734375 10.175781 C 13.238281 10.175781 13.644531 10.585938 13.644531 11.085938 Z M 13.644531 11.085938 "/>
     <defs>
  <style id="current-color-scheme" type="text/css">
   .ColorScheme-Text { color:#424242; } .ColorScheme-Highlight { color:#eeeeee; }
  </style>
 </defs>
<path style="fill:currentColor" class="ColorScheme-Text" d="M 10.003906 11.085938 C 10.003906 11.589844 9.597656 11.996094 9.097656 11.996094 C 8.59375 11.996094 8.1875 11.589844 8.1875 11.085938 C 8.1875 10.585938 8.59375 10.175781 9.097656 10.175781 C 9.597656 10.175781 10.003906 10.585938 10.003906 11.085938 Z M 10.003906 11.085938 "/>
</g>
</svg>
